brandFactory_export/2.Regular/Tranvía _2Regular.svg

<?xml version="1.0" encoding="UTF-8"?>
<svg width="24px" height="24px" viewBox="0 0 24 24" version="1.1" xmlns="http://www.w3.org/2000/svg" xmlns:xlink="http://www.w3.org/1999/xlink">
    <title>2.Regular/Tranvía _2Regular</title>
    <g id="Symbols" stroke="none" stroke-width="1" fill="none" fill-rule="evenodd">
        <g id="2.Regular/Tranvía-_2Regular" fill="#5CB615" fill-rule="nonzero">
            <path d="M20.0134454,19.0386555 L19.9226891,19.0991597 C19.7478992,19.2168067 19.5495798,19.307563 19.3478992,19.2739496 L18.3193277,19.2672269 C17.9630252,18.6218487 17.297479,18.2386555 16.4201681,18.2386555 C15.5495798,18.2386555 14.8840336,18.6184874 14.5277311,19.2537815 L10.8840336,19.2470588 C10.5243697,18.6117647 9.86218487,18.2386555 8.99495798,18.2386555 C8.12773109,18.2386555 7.46554622,18.6117647 7.10588235,19.2470588 L5.99327731,19.2470588 C5.63361345,18.6151261 4.97142857,18.2420168 4.10420168,18.2420168 C3.23697479,18.2420168 2.57478992,18.6151261 2.21512605,19.2470588 L1.4487395,19.2470588 L1.4487395,17.4453782 L21.7411765,17.4453782 C21.297479,18.1815126 20.5915966,18.6521008 20.0134454,19.0386555 L20.0134454,19.0386555 Z M16.4201681,21.2168067 C15.8857143,21.2168067 15.6739496,21.005042 15.6739496,20.4605042 C15.6739496,19.9159664 15.8823529,19.7042017 16.4201681,19.7042017 C16.9579832,19.7042017 17.1663866,19.9159664 17.1663866,20.4605042 C17.1663866,21.005042 16.9579832,21.2168067 16.4201681,21.2168067 Z M8.99159664,21.2168067 C8.45714286,21.2168067 8.24537815,21.005042 8.24537815,20.4605042 C8.24537815,19.9159664 8.45378151,19.7042017 8.99159664,19.7042017 C9.52941176,19.7042017 9.73781513,19.9159664 9.73781513,20.4605042 C9.73781513,21.005042 9.52941176,21.2168067 8.99159664,21.2168067 Z M4.10084034,21.2168067 C3.56302521,21.2168067 3.35462185,21.005042 3.35462185,20.4605042 C3.35462185,19.9159664 3.56302521,19.7042017 4.10084034,19.7042017 C4.63865546,19.7042017 4.84705882,19.9159664 4.84705882,20.4605042 C4.84705882,21.005042 4.63865546,21.2168067 4.10084034,21.2168067 L4.10084034,21.2168067 Z M1.4487395,13.7579832 L4.03697479,13.7579832 L4.03697479,11.210084 L1.4487395,11.210084 L1.4487395,13.7579832 Z M5.48235294,13.7579832 L7.80504202,13.7579832 L7.80504202,11.210084 L5.48235294,11.210084 L5.48235294,13.7579832 Z M9.25042017,13.7579832 L11.6201681,13.7579832 L11.6201681,11.210084 L9.25042017,11.210084 L9.25042017,13.7579832 Z M14.0067227,8.87394958 L14.0067227,14.5747899 C14.0067227,14.9815126 14.3294118,15.307563 14.7294118,15.307563 L22.1445378,15.307563 C22.1714286,15.5462185 22.1781513,15.7680672 22.1680672,15.9764706 C22.1579832,15.9764706 22.1512605,15.9697479 22.1411765,15.9697479 L1.44537815,15.9697479 L1.44537815,15.2268908 L12.3428571,15.2268908 C12.7428571,15.2268908 13.0655462,14.897479 13.0655462,14.4941176 L13.0655462,10.4806723 C13.0655462,10.0739496 12.7428571,9.74789916 12.3428571,9.74789916 L1.44537815,9.74789916 L1.44537815,8.87731092 L14.0067227,8.87394958 Z M10.3058824,6.20168067 L11.1663866,6.20168067 L9.97983193,7.40504202 L9.11932773,7.40504202 L10.3058824,6.20168067 Z M9.30084034,4.73613445 L14.1613445,4.73613445 L14.1613445,3.48235294 L9.30084034,3.48235294 L9.30084034,4.73613445 L9.30084034,4.73613445 Z M21.3781513,12.907563 C21.5394958,13.2369748 21.6638655,13.5462185 21.7747899,13.8386555 L15.4554622,13.8386555 L15.4554622,8.88067227 C16.087395,8.93781513 19.6705882,9.40504202 21.3781513,12.907563 Z M22.6756303,12.2554622 C20.4537815,7.69747899 15.6336134,7.41512605 15.394958,7.40504202 L12.0235294,7.40504202 L13.210084,6.20168067 L14.8840336,6.20168067 C15.2840336,6.20168067 15.6067227,5.87226891 15.6067227,5.46890756 L15.6067227,3.48235294 L22.7394958,3.48235294 C23.1394958,3.48235294 23.4621849,3.15294118 23.4621849,2.74957983 C23.4621849,2.34285714 23.1394958,2.01680672 22.7394958,2.01680672 L0.722689076,2.01680672 C0.322689076,2.01680672 -1.77635684e-15,2.34621849 -1.77635684e-15,2.74957983 C-1.77635684e-15,3.15630252 0.322689076,3.48235294 0.722689076,3.48235294 L7.85546218,3.48235294 L7.85546218,5.46890756 C7.85546218,5.77815126 8.04705882,6.04369748 8.31596639,6.14789916 L7.07563025,7.40504202 L0.722689076,7.40504202 C0.531092437,7.40504202 0.346218487,7.48235294 0.211764706,7.62016807 C0.0773109244,7.75798319 -1.77635684e-15,7.94285714 -1.77635684e-15,8.13781513 L-1.77635684e-15,19.9731092 C-1.77635684e-15,20.3798319 0.322689076,20.7058824 0.722689076,20.7058824 L1.92941176,20.7058824 C2.0302521,21.9092437 2.85378151,22.6823529 4.10084034,22.6823529 C5.34789916,22.6823529 6.17142857,21.912605 6.27226891,20.7058824 L6.82016807,20.7058824 C6.92436975,21.9092437 7.74453782,22.6823529 8.99159664,22.6823529 C10.2352941,22.6823529 11.0588235,21.912605 11.1630252,20.712605 L14.2487395,20.7193277 C14.3563025,21.9193277 15.1764706,22.6857143 16.4201681,22.6857143 C17.6571429,22.6857143 18.4773109,21.9260504 18.5882353,20.7327731 L19.3378151,20.7361345 L19.3579832,20.7361345 C19.8386555,20.7361345 20.3092437,20.5915966 20.7159664,20.3226891 L20.8033613,20.2655462 C22.1109244,19.3983193 25.1663866,17.3647059 22.6756303,12.2554622 Z" id="Tranvía-_2Regular"></path>
        </g>
    </g>
</svg>

<svg width="24" height="24" viewBox="0 0 24 24" xmlns="http://www.w3.org/2000/svg"><path d="M20.013 19.039l-.09.06c-.175.118-.373.209-.575.175l-1.029-.007c-.356-.645-1.022-1.028-1.899-1.028-.87 0-1.536.38-1.892 1.015l-3.644-.007c-.36-.635-1.022-1.008-1.889-1.008s-1.53.373-1.89 1.008H5.994c-.36-.632-1.022-1.005-1.889-1.005s-1.53.373-1.889 1.005H1.45v-1.802H21.74c-.444.737-1.15 1.207-1.728 1.594zm-3.593 2.178c-.534 0-.746-.212-.746-.756 0-.545.208-.757.746-.757s.746.212.746.757c0 .544-.208.756-.746.756zm-7.428 0c-.535 0-.747-.212-.747-.756 0-.545.209-.757.747-.757.537 0 .746.212.746.757 0 .544-.209.756-.746.756zm-4.891 0c-.538 0-.746-.212-.746-.756 0-.545.208-.757.746-.757s.746.212.746.757c0 .544-.208.756-.746.756zm-2.652-7.459h2.588V11.21H1.449v2.548zm4.033 0h2.323V11.21H5.482v2.548zm3.768 0h2.37V11.21H9.25v2.548zm4.757-4.884v5.7c0 .408.322.734.722.734h7.416c.026.238.033.46.023.668-.01 0-.017-.006-.027-.006H1.445v-.743h10.898c.4 0 .723-.33.723-.733v-4.013a.726.726 0 00-.723-.733H1.445v-.87l12.562-.004zm-3.701-2.672h.86L9.98 7.405h-.86l1.186-1.203zM9.3 4.736h4.86V3.482h-4.86v1.254zm12.077 8.172c.161.329.286.638.397.93h-6.32V8.882c.632.057 4.216.524 5.923 4.027zm1.298-.653c-2.222-4.558-7.042-4.84-7.281-4.85h-3.371l1.186-1.203h1.674c.4 0 .723-.33.723-.733V3.482h7.132c.4 0 .723-.33.723-.732a.726.726 0 00-.723-.733H.723c-.4 0-.723.33-.723.733 0 .406.323.732.723.732h7.132V5.47c0 .31.192.575.461.679l-1.24 1.257H.723a.715.715 0 00-.511.215.741.741 0 00-.212.518v11.835c0 .407.323.733.723.733h1.206c.101 1.203.925 1.976 2.172 1.976s2.07-.77 2.171-1.976h.548c.104 1.203.925 1.976 2.172 1.976 1.243 0 2.067-.77 2.171-1.97l3.086.007c.107 1.2.927 1.967 2.171 1.967 1.237 0 2.057-.76 2.168-1.953l.75.003h.02c.48 0 .951-.144 1.358-.413l.087-.057c1.308-.868 4.363-2.901 1.873-8.01z" fill="#5CB615" fill-rule="nonzero"/></svg>
